X:1
T:Barnett, LMD
T:John P. Campbell, 1901
T:Barnett, LMD
T:Public Domain
C:John P. Campbell, 1901
Z:Public Domain
%%score ( 1 2 ) ( 3 4 )
L:1/8
M:4/2
K:G
V:1 treble 
V:2 treble 
V:3 bass 
V:4 bass 
V:1
 [DB]4 | [EB]4 [EA]2 E2 [CF]4 [CG]2 [CA]2 | [B,G]12 [DG]4 | [EG]4 [EA]2 [DB]2 [Cc]4 [Dc]2 [Dc]2 | %4
 [DB]12 [Dd]4 | [Dd]4 [DA]2 [DB]2 [Cc]4 [DB]2 [DB]2 | [EB]12 [DA]4 | %7
 [DG]4 [DF]2 [DE]2 [DF]2 [DF]2 [^CE]4 | D12 (D2 E2) | [DF]4 [DF]2 [DG]2 [Ec]4 [DB]2 [DA]2 | %10
 [DB]12 (G2 A2) | [GB]4 [GB]2 [Gc]2 [A=f]4 [Ge]2 [Gd]2 | [Ge]12 e2 d2 | %13
 [Ec]4 [Ec]2 [EB]2 [EA]4 [EA]2 [EG]2 | [DF]12 [DA]4 | [Dd]4 [^CG]2 [CA]2 [DB]2 [DB]2 [=CA]4 | %16
 [B,G]12 |] %17
V:2
 x4 | x6 E2 x8 | x16 | x16 | x16 | x16 | x16 | x16 | D12 D4 | x16 | x12 G4 | x16 | x12 E4 | x16 | %14
 x16 | x16 | x12 |] %17
V:3
 [G,B,]4 | [G,C]4 [G,C]2 [G,C]2 [D,A,]4 [D,G,]2 [D,F,]2 | [G,,G,]12 [B,,G,]4 | %3
 [C,G,]4 [C,E,]2 [B,,E,]2 [A,,E,]4 [D,F,]2 [D,F,]2 | [G,,G,]12 [G,B,]4 | %5
 [F,A,]4 [=F,A,]2 [F,G,]2 [E,G,]4 [D,G,]2 [D,G,]2 | [^C,G,]12 [=C,F,]4 | %7
 [B,,G,]4 [A,,A,]2 [G,,B,]2 [A,,A,]2 [A,,A,]2 [A,,G,]4 | [D,F,]12 (F,2 G,2) | %9
 [C,A,]4 [C,A,]2 [B,,G,]2 [A,,G,]4 [D,G,]2 [D,F,]2 | [G,,G,]12 (B,2 C2) | %11
 [=F,D]4 [F,D]2 [E,C]2 [D,C]4 [G,C]2 [G,B,]2 | [C,C]12 [^G,B,]4 | %13
 A,4 [A,,A,]2 [B,,^G,]2 [C,A,]4 [^C,_B,]2 [C,B,]2 | [D,A,]12 [C,F,]4 | %15
 [B,,G,]4 [E,G,]2 [E,G,]2 [D,G,]2 [D,G,]2 [D,F,]4 | [G,,G,]12 |] %17
V:4
 x4 | x16 | x16 | x16 | x16 | x16 | x16 | x16 | x12 D,4 | x16 | x12 G,4 | x16 | x16 | A,4 x12 | %14
 x16 | x16 | x12 |] %17

